X: 351
P: Longways for as many as will
M: C|
L: 1/8
K: Dm
V: 1
|:\
defg a2a2 | b2a2 a4 | b4 a2g2 | agfe d4 |\
defg f2A2 | ABcd c2F2 | FGA2 ABc2 | A2G2 F4 :|
|:\
V: 2 clef=bass middle=d
|:\
d'2de f2d2 | g2fe f2d2 | g4 f2e2 | d4 D4 |\
d4 z2f2 | f4 z2f2 | f4 F4 | c2C2 F4 :|
|:\
a4 ^c4 | d4 z2f2 | g4 b2g2 | a2A2 d4 :|

